svgs/1F927.svg

<svg xmlns="http://www.w3.org/2000/svg" xmlns:xlink="http://www.w3.org/1999/xlink" preserveAspectRatio="none" viewBox="0 0 72 72"><defs><path id="a" fill="#FCC21B" d="M127.75 92.35q0-27-8.5-47Q103.65 8.7 64 8.7 24.3 8.65 8.7 45.3.2 65.35.2 92.35q0 10.4 18.7 17.7 18.65 7.35 45.1 7.35 26.4 0 45.1-7.35 18.65-7.3 18.65-17.7z"/><path id="b" fill="#FCC21B" d="M83.9 94.95q22.6-3.65 32.8-13.45 10.2-9.75 2-19.9-8.3-10.1-30.15-14.65-21.9-4.55-44.5-.85-22.6 3.65-32.8 13.45Q1.1 69.3 9.3 79.45 17.5 89.6 39.35 94.1q21.85 4.55 44.55.85z"/><path id="c" fill="#FCC01C" d="M83.15 94.05q21.75-3.5 31.6-12.95 9.8-9.4 1.9-19.15-7.95-9.75-29-14.15Q66.6 43.45 44.8 47T13.2 59.95q-9.75 9.4-1.85 19.15 7.9 9.75 28.95 14.1 20.95 4.4 42.85.85z"/><path id="d" fill="#FCBE1C" d="M82.4 93.15q20.9-3.4 30.35-12.45 9.45-9.05 1.85-18.4-7.65-9.4-27.9-13.6-20.2-4.2-41.15-.8Q24.6 51.35 15.2 60.4q-9.45 9-1.85 18.35 7.65 9.4 27.85 13.6 20.2 4.2 41.2.8z"/><path id="e" fill="#FBBB1D" d="M81.65 92.2q20.1-3.25 29.15-11.95 9.05-8.65 1.75-17.65-7.3-9-26.75-13.05-19.4-4-39.5-.75-20.1 3.3-29.15 12-9.05 8.65-1.75 17.65 7.3 9 26.7 13.05 19.4 4 39.55.7z"/><path id="f" fill="#FBB91E" d="M108.85 79.85q8.65-8.3 1.65-16.9-7-8.6-25.6-12.5-18.6-3.85-37.85-.7Q27.8 52.9 19.15 61.2q-8.7 8.3-1.7 16.9 7 8.65 25.6 12.5 18.55 3.85 37.85.7 19.25-3.1 27.95-11.45z"/><path id="g" fill="#FBB71E" d="M106.85 79.45q8.3-7.95 1.6-16.15-6.7-8.25-24.5-11.95-17.75-3.7-36.15-.7-18.45 3-26.7 10.95-8.3 7.95-1.6 16.15Q26.2 86 43.95 89.7q17.75 3.7 36.2.7 18.4-3 26.7-10.95z"/><path id="h" fill="#FBB51F" d="M104.85 79.05q7.95-7.6 1.6-15.45-6.4-7.85-23.4-11.4-16.95-3.5-34.5-.65-17.6 2.9-25.5 10.45-7.85 7.6-1.5 15.45 6.4 7.85 23.35 11.35 16.95 3.55 34.5.65 17.55-2.8 25.45-10.4z"/><path id="i" fill="#FAB220" d="M102.9 78.65q7.55-7.25 1.5-14.7-6.1-7.5-22.25-10.85Q66 49.75 49.3 52.5q-16.75 2.7-24.25 9.9-7.55 7.25-1.45 14.7 6.05 7.5 22.2 10.85 16.1 3.35 32.85.6 16.7-2.7 24.25-9.9z"/><path id="j" fill="#FAB020" d="M100.9 78.2q7.2-6.85 1.4-13.9-5.75-7.1-21.1-10.3-15.3-3.2-31.2-.6-15.85 2.6-23 9.45t-1.35 13.9q5.75 7.1 21.05 10.3 15.3 3.2 31.2.6 15.85-2.6 23-9.45z"/><path id="k" fill="#FAAE21" d="M98.95 77.8q6.8-6.5 1.35-13.2-5.45-6.7-20-9.7-14.5-3.05-29.55-.6-15.05 2.5-21.8 8.95-6.7 6.5-1.25 13.2 5.5 6.7 19.95 9.75 14.45 3 29.5.55t21.8-8.95z"/><path id="l" fill="#FAAC22" d="M97 77.4q6.4-6.1 1.25-12.45t-18.85-9.2q-13.7-2.85-27.9-.55-14.2 2.35-20.55 8.45-6.35 6.1-1.2 12.45 5.15 6.35 18.8 9.2 13.7 2.85 27.9.55Q90.6 83.55 97 77.4z"/><path id="m" fill="#F9A922" d="M95.05 77q6-5.75 1.15-11.7-4.85-6-17.75-8.65-12.85-2.7-26.2-.5Q38.9 58.3 32.9 64.1q-6 5.7-1.15 11.65 4.9 5.95 17.75 8.65t26.2.5Q89 82.75 95.05 77z"/><path id="n" fill="#F9A723" d="M93.05 76.6q5.65-5.4 1.1-11-4.55-5.6-16.6-8.1T53 57.05q-12.5 2.05-18.1 7.4-5.65 5.4-1.1 11 4.55 5.6 16.6 8.1 12 2.5 24.55.45 12.45-2 18.1-7.4z"/><path id="o" fill="#F9A524" d="M91.1 76.15q5.25-5 1-10.2-4.25-5.2-15.5-7.55-11.2-2.35-22.85-.45-11.65 1.9-16.9 6.95-5.2 5-1 10.2 4.25 5.2 15.45 7.55 11.25 2.35 22.9.45 11.65-1.9 16.9-6.95z"/><path id="p" fill="#F9A324" d="M89.1 75.75q4.9-4.65.95-9.45-3.95-4.85-14.35-7-10.4-2.2-21.2-.45-10.8 1.8-15.65 6.45t-.95 9.45q3.95 4.85 14.35 7 10.4 2.2 21.2.45 10.8-1.75 15.65-6.45z"/><path id="q" fill="#F8A025" d="M87.1 75.35q4.5-4.3.9-8.75-3.65-4.45-13.2-6.4-9.6-2-19.55-.4-9.95 1.6-14.45 5.9-4.45 4.3-.85 8.75t13.2 6.4q9.6 2 19.55.4 9.95-1.6 14.4-5.9z"/><path id="r" fill="#F89E26" d="M85.15 74.95q4.1-3.95.8-8-3.35-4.1-12.1-5.9-8.75-1.8-17.9-.35-9.1 1.5-13.2 5.45-4.05 3.9-.75 7.95 3.3 4.1 12.05 5.9 8.75 1.8 17.9.35 9.1-1.5 13.2-5.4z"/><path id="s" fill="#F89C26" d="M83.2 74.55q3.7-3.6.7-7.3-3-3.7-10.95-5.35-8-1.65-16.25-.3-8.25 1.35-11.95 4.9-3.7 3.55-.7 7.25T55 79.1q7.95 1.65 16.25.35 8.2-1.35 11.95-4.9z"/><path id="t" fill="#F89A27" d="M81.25 74.1q3.3-3.2.65-6.5-2.7-3.3-9.85-4.8-7.2-1.5-14.6-.3-7.4 1.25-10.7 4.45-3.35 3.15-.65 6.5 2.7 3.3 9.85 4.8 7.1 1.45 14.55.25 7.4-1.2 10.75-4.4z"/><path id="u" fill="#F79728" d="M69.75 77.6q6.55-1.05 9.5-3.9 2.95-2.8.6-5.75-2.4-2.9-8.75-4.25-6.35-1.3-12.9-.25-6.55 1.1-9.5 3.9-2.95 2.85-.55 5.75 2.35 2.9 8.7 4.25 6.35 1.3 12.9.25z"/><path id="v" fill="#F79528" d="M69 76.7q5.7-.95 8.3-3.4 2.55-2.45.45-5.05-2.05-2.55-7.6-3.7-5.5-1.15-11.2-.2-5.7.95-8.3 3.4-2.55 2.45-.5 5 2.1 2.6 7.6 3.75t11.25.2z"/><path id="w" fill="#F79329" d="M68.25 75.75q4.85-.8 7.05-2.9 2.2-2.05.45-4.25-1.8-2.15-6.5-3.15t-9.55-.2q-4.9.85-7.05 2.95-2.2 2.1-.45 4.25 1.75 2.2 6.45 3.15 4.75.95 9.6.15z"/><path id="x" fill="#2F2F2F" d="M99.9 49.25q-.25-1.1-1.2-1.65-.9-.6-1.95-.35-2.5.45-7.8 2.35-8.4 3.05-13.75 6.9-.7.55-.95 1.4-.3.85.05 1.65.35.85 1.1 1.3.75.5 1.65.4.05 0 6.35-.15 7.35.15 12.4 1.9l.65.15q.9.1 1.65-.4.75-.5 1.05-1.35.4-1.05-.1-2.05-.5-.95-1.55-1.3-4.85-1.7-10.45-2.05 5.7-2.4 10.85-3.6 1.1-.25 1.65-1.2.6-.9.35-1.95z"/><path id="y" fill="#2F2F2F" d="M30.1 47.6q-.95.55-1.2 1.65-.2 1.05.35 1.95.55.95 1.6 1.2.35 0 3.35.9 3.95 1.2 7.5 2.7-5.6.35-10.45 2.05-1.05.35-1.5 1.3-.5 1-.15 2.05.3.85 1.1 1.35.75.5 1.65.4L33 63q5.05-1.75 12.4-1.9 3.65-.1 6.35.15 2 .15 2.75-1.7.35-.8.1-1.65-.3-.85-1-1.4-5.4-3.85-13.75-6.9-5.3-1.9-7.8-2.35Q31 47 30.1 47.6z"/><path id="z" fill="#2F2F2F" d="M90.75 92.2q.9.85 2.15.85t2.1-.85q.85-.9.85-2.15t-.85-2.1q-6.8-6.8-17.2-4.5-9.4 2.1-17.6 10.25-.85.85-.85 2.1t.85 2.1q.85.9 2.1.9t2.15-.9q6.3-6.3 13.55-8.25 8-2.2 12.75 2.55z"/><path id="A" fill="#BDBDBD" d="M37.95 34.65q-1.83-1.712-6.35.2Q23.39 38.33 21 39q-1.063.291-12.95 2.6-8.16 1.567-7.8 3.55.21 1.499 1.55 3.05 1.603 1.799 1.85 2.25.599 1.24.6 3.2-.002 2.534.25 3.25.55 1.551 1.9 3.05 1.512 1.734 1.6 1.7-.004.15.05.25.763 1.167 1.05 4.1.327 3.02 1.6 4.25 1.13 1.363 7.8-2.95 6.242-4.025 9.55-7.8 5.22-6.031 8.7-13.6 4.049-8.837 1.2-11.25z"/><path id="B" fill="#EEE" d="M21.3 40.45q-1.354.37-12.95 2.65-6.421 1.212-6.6 1.85.19 1.117 1.2 2.3Q4.747 49.253 5 49.8q.753 1.47.75 3.85.002 2.146.2 2.75.45 1.298 1.6 2.6 1.17 1.34 1.6 1.95.127.053.2.15.925 1.314 1.25 4.75.235 2.275 1.05 3.25.068.047.1.05.563.358 5.95-3.1 6.017-3.9 9.25-7.5 5.06-5.888 8.45-13.25 3.431-7.5 1.6-9.5l-.05-.05q-1.367-.975-4.75.45-8.33 3.541-10.75 4.25-.074.022-.15 0z"/><path id="C" fill="#BDBDBD" d="M28 42.85q-.3-.15-1.05.25-2.2 1.4-8.05 4.25-4.75 2.3-7.95 3.1-.5.1-.65.5-.1.4.75.35 2.05-.1 4.2-.75 1.7-.5 3.95-1.55 2-.9 4.25-2.3 2.5-1.55 4.25-3.15.6-.55.3-.7z"/><path id="D" fill="#BDBDBD" d="M28.25 49q-.3-.05-.85.45-1.85 1.9-6.25 5.6-3.7 3.15-6.35 4.6-.45.2-.5.55 0 .4.8.2 1.8-.5 3.55-1.6 1.3-.85 3.2-2.3 1.6-1.3 3.2-3.05 1.9-2 3.1-3.75.4-.65.1-.7z"/></defs><use transform="scale(.5625)" xlink:href="#a"/><use transform="scale(.56245)" xlink:href="#b"/><use transform="scale(.56245)" xlink:href="#c"/><use transform="scale(.56245)" xlink:href="#d"/><use transform="scale(.56245)" xlink:href="#e"/><use transform="scale(.56245)" xlink:href="#f"/><use transform="scale(.56245)" xlink:href="#g"/><use transform="scale(.56245)" xlink:href="#h"/><use transform="scale(.56245)" xlink:href="#i"/><use transform="scale(.56245)" xlink:href="#j"/><use transform="scale(.56245)" xlink:href="#k"/><use transform="scale(.56245)" xlink:href="#l"/><use transform="scale(.56245)" xlink:href="#m"/><use transform="scale(.56245)" xlink:href="#n"/><use transform="scale(.56245)" xlink:href="#o"/><use transform="scale(.56245)" xlink:href="#p"/><use transform="scale(.56245)" xlink:href="#q"/><use transform="scale(.56245)" xlink:href="#r"/><use transform="scale(.56245)" xlink:href="#s"/><use transform="scale(.56245)" xlink:href="#t"/><use transform="scale(.56245)" xlink:href="#u"/><use transform="scale(.56245)" xlink:href="#v"/><use transform="scale(.56245)" xlink:href="#w"/><use transform="scale(.5625)" xlink:href="#x"/><use transform="scale(.5625)" xlink:href="#y"/><use transform="scale(.5625)" xlink:href="#z"/><use xlink:href="#A"/><use xlink:href="#B"/><use xlink:href="#C"/><use xlink:href="#D"/></svg>

<svg xmlns="http://www.w3.org/2000/svg" version="1.1" xmlns:xlink="http://www.w3.org/1999/xlink" preserveAspectRatio="none" x="0px" y="0px" width="72px" height="72px" viewBox="0 0 72 72">
<defs>
<g id="Layer0_0_FILL">
<path fill="#FCC21B" stroke="none" d="
M 127.75 92.35
Q 127.75 65.35 119.25 45.35 103.65 8.7 64 8.7 24.3 8.65 8.7 45.3 0.2 65.35 0.2 92.35 0.2 102.75 18.9 110.05 37.55 117.4 64 117.4 90.4 117.4 109.1 110.05 127.75 102.75 127.75 92.35 Z"/>
</g>

<g id="Layer0_1_MEMBER_0_FILL">
<path fill="#FCC21B" stroke="none" d="
M 83.9 94.95
Q 106.5 91.3 116.7 81.5 126.9 71.75 118.7 61.6 110.4 51.5 88.55 46.95 66.65 42.4 44.05 46.1 21.45 49.75 11.25 59.55 1.1 69.3 9.3 79.45 17.5 89.6 39.35 94.1 61.2 98.65 83.9 94.95 Z"/>
</g>

<g id="Layer0_1_MEMBER_1_FILL">
<path fill="#FCC01C" stroke="none" d="
M 83.15 94.05
Q 104.9 90.55 114.75 81.1 124.55 71.7 116.65 61.95 108.7 52.2 87.65 47.8 66.6 43.45 44.8 47 23 50.55 13.2 59.95 3.45 69.35 11.35 79.1 19.25 88.85 40.3 93.2 61.25 97.6 83.15 94.05 Z"/>
</g>

<g id="Layer0_1_MEMBER_2_FILL">
<path fill="#FCBE1C" stroke="none" d="
M 82.4 93.15
Q 103.3 89.75 112.75 80.7 122.2 71.65 114.6 62.3 106.95 52.9 86.7 48.7 66.5 44.5 45.55 47.9 24.6 51.35 15.2 60.4 5.75 69.4 13.35 78.75 21 88.15 41.2 92.35 61.4 96.55 82.4 93.15 Z"/>
</g>

<g id="Layer0_1_MEMBER_3_FILL">
<path fill="#FBBB1D" stroke="none" d="
M 81.65 92.2
Q 101.75 88.95 110.8 80.25 119.85 71.6 112.55 62.6 105.25 53.6 85.8 49.55 66.4 45.55 46.3 48.8 26.2 52.1 17.15 60.8 8.1 69.45 15.4 78.45 22.7 87.45 42.1 91.5 61.5 95.5 81.65 92.2 Z"/>
</g>

<g id="Layer0_1_MEMBER_4_FILL">
<path fill="#FBB91E" stroke="none" d="
M 108.85 79.85
Q 117.5 71.55 110.5 62.95 103.5 54.35 84.9 50.45 66.3 46.6 47.05 49.75 27.8 52.9 19.15 61.2 10.45 69.5 17.45 78.1 24.45 86.75 43.05 90.6 61.6 94.45 80.9 91.3 100.15 88.2 108.85 79.85 Z"/>
</g>

<g id="Layer0_1_MEMBER_5_FILL">
<path fill="#FBB71E" stroke="none" d="
M 106.85 79.45
Q 115.15 71.5 108.45 63.3 101.75 55.05 83.95 51.35 66.2 47.65 47.8 50.65 29.35 53.65 21.1 61.6 12.8 69.55 19.5 77.75 26.2 86 43.95 89.7 61.7 93.4 80.15 90.4 98.55 87.4 106.85 79.45 Z"/>
</g>

<g id="Layer0_1_MEMBER_6_FILL">
<path fill="#FBB51F" stroke="none" d="
M 104.85 79.05
Q 112.8 71.45 106.45 63.6 100.05 55.75 83.05 52.2 66.1 48.7 48.55 51.55 30.95 54.45 23.05 62 15.2 69.6 21.55 77.45 27.95 85.3 44.9 88.8 61.85 92.35 79.4 89.45 96.95 86.65 104.85 79.05 Z"/>
</g>

<g id="Layer0_1_MEMBER_7_FILL">
<path fill="#FAB220" stroke="none" d="
M 102.9 78.65
Q 110.45 71.4 104.4 63.95 98.3 56.45 82.15 53.1 66 49.75 49.3 52.5 32.55 55.2 25.05 62.4 17.5 69.65 23.6 77.1 29.65 84.6 45.8 87.95 61.9 91.3 78.65 88.55 95.35 85.85 102.9 78.65 Z"/>
</g>

<g id="Layer0_1_MEMBER_8_FILL">
<path fill="#FAB020" stroke="none" d="
M 100.9 78.2
Q 108.1 71.35 102.3 64.3 96.55 57.2 81.2 54 65.9 50.8 50 53.4 34.15 56 27 62.85 19.85 69.7 25.65 76.75 31.4 83.85 46.7 87.05 62 90.25 77.9 87.65 93.75 85.05 100.9 78.2 Z"/>
</g>

<g id="Layer0_1_MEMBER_9_FILL">
<path fill="#FAAE21" stroke="none" d="
M 98.95 77.8
Q 105.75 71.3 100.3 64.6 94.85 57.9 80.3 54.9 65.8 51.85 50.75 54.3 35.7 56.8 28.95 63.25 22.25 69.75 27.7 76.45 33.2 83.15 47.65 86.2 62.1 89.2 77.15 86.75 92.2 84.3 98.95 77.8 Z"/>
</g>

<g id="Layer0_1_MEMBER_10_FILL">
<path fill="#FAAC22" stroke="none" d="
M 97 77.4
Q 103.4 71.3 98.25 64.95 93.1 58.6 79.4 55.75 65.7 52.9 51.5 55.2 37.3 57.55 30.95 63.65 24.6 69.75 29.75 76.1 34.9 82.45 48.55 85.3 62.25 88.15 76.45 85.85 90.6 83.55 97 77.4 Z"/>
</g>

<g id="Layer0_1_MEMBER_11_FILL">
<path fill="#F9A922" stroke="none" d="
M 95.05 77
Q 101.05 71.25 96.2 65.3 91.35 59.3 78.45 56.65 65.6 53.95 52.25 56.15 38.9 58.3 32.9 64.1 26.9 69.8 31.75 75.75 36.65 81.7 49.5 84.4 62.35 87.1 75.7 84.9 89 82.75 95.05 77 Z"/>
</g>

<g id="Layer0_1_MEMBER_12_FILL">
<path fill="#F9A723" stroke="none" d="
M 93.05 76.6
Q 98.7 71.2 94.15 65.6 89.6 60 77.55 57.5 65.5 55 53 57.05 40.5 59.1 34.9 64.45 29.25 69.85 33.8 75.45 38.35 81.05 50.4 83.55 62.4 86.05 74.95 84 87.4 82 93.05 76.6 Z"/>
</g>

<g id="Layer0_1_MEMBER_13_FILL">
<path fill="#F9A524" stroke="none" d="
M 91.1 76.15
Q 96.35 71.15 92.1 65.95 87.85 60.75 76.6 58.4 65.4 56.05 53.75 57.95 42.1 59.85 36.85 64.9 31.65 69.9 35.85 75.1 40.1 80.3 51.3 82.65 62.55 85 74.2 83.1 85.85 81.2 91.1 76.15 Z"/>
</g>

<g id="Layer0_1_MEMBER_14_FILL">
<path fill="#F9A324" stroke="none" d="
M 89.1 75.75
Q 94 71.1 90.05 66.3 86.1 61.45 75.7 59.3 65.3 57.1 54.5 58.85 43.7 60.65 38.85 65.3 34 69.95 37.9 74.75 41.85 79.6 52.25 81.75 62.65 83.95 73.45 82.2 84.25 80.45 89.1 75.75 Z"/>
</g>

<g id="Layer0_1_MEMBER_15_FILL">
<path fill="#F8A025" stroke="none" d="
M 87.1 75.35
Q 91.6 71.05 88 66.6 84.35 62.15 74.8 60.2 65.2 58.2 55.25 59.8 45.3 61.4 40.8 65.7 36.35 70 39.95 74.45 43.55 78.9 53.15 80.85 62.75 82.85 72.7 81.25 82.65 79.65 87.1 75.35 Z"/>
</g>

<g id="Layer0_1_MEMBER_16_FILL">
<path fill="#F89E26" stroke="none" d="
M 85.15 74.95
Q 89.25 71 85.95 66.95 82.6 62.85 73.85 61.05 65.1 59.25 55.95 60.7 46.85 62.2 42.75 66.15 38.7 70.05 42 74.1 45.3 78.2 54.05 80 62.8 81.8 71.95 80.35 81.05 78.85 85.15 74.95 Z"/>
</g>

<g id="Layer0_1_MEMBER_17_FILL">
<path fill="#F89C26" stroke="none" d="
M 83.2 74.55
Q 86.9 70.95 83.9 67.25 80.9 63.55 72.95 61.9 64.95 60.25 56.7 61.6 48.45 62.95 44.75 66.5 41.05 70.05 44.05 73.75 47.05 77.45 55 79.1 62.95 80.75 71.25 79.45 79.45 78.1 83.2 74.55 Z"/>
</g>

<g id="Layer0_1_MEMBER_18_FILL">
<path fill="#F89A27" stroke="none" d="
M 81.25 74.1
Q 84.55 70.9 81.9 67.6 79.2 64.3 72.05 62.8 64.85 61.3 57.45 62.5 50.05 63.75 46.75 66.95 43.4 70.1 46.1 73.45 48.8 76.75 55.95 78.25 63.05 79.7 70.5 78.5 77.9 77.3 81.25 74.1 Z"/>
</g>

<g id="Layer0_1_MEMBER_19_FILL">
<path fill="#F79728" stroke="none" d="
M 69.75 77.6
Q 76.3 76.55 79.25 73.7 82.2 70.9 79.85 67.95 77.45 65.05 71.1 63.7 64.75 62.4 58.2 63.45 51.65 64.55 48.7 67.35 45.75 70.2 48.15 73.1 50.5 76 56.85 77.35 63.2 78.65 69.75 77.6 Z"/>
</g>

<g id="Layer0_1_MEMBER_20_FILL">
<path fill="#F79528" stroke="none" d="
M 69 76.7
Q 74.7 75.75 77.3 73.3 79.85 70.85 77.75 68.25 75.7 65.7 70.15 64.55 64.65 63.4 58.95 64.35 53.25 65.3 50.65 67.75 48.1 70.2 50.15 72.75 52.25 75.35 57.75 76.5 63.25 77.65 69 76.7 Z"/>
</g>

<g id="Layer0_1_MEMBER_21_FILL">
<path fill="#F79329" stroke="none" d="
M 68.25 75.75
Q 73.1 74.95 75.3 72.85 77.5 70.8 75.75 68.6 73.95 66.45 69.25 65.45 64.55 64.45 59.7 65.25 54.8 66.1 52.65 68.2 50.45 70.3 52.2 72.45 53.95 74.65 58.65 75.6 63.4 76.55 68.25 75.75 Z"/>
</g>

<g id="Layer0_2_MEMBER_0_FILL">
<path fill="#2F2F2F" stroke="none" d="
M 99.9 49.25
Q 99.65 48.15 98.7 47.6 97.8 47 96.75 47.25 94.25 47.7 88.95 49.6 80.55 52.65 75.2 56.5 74.5 57.05 74.25 57.9 73.95 58.75 74.3 59.55 74.65 60.4 75.4 60.85 76.15 61.35 77.05 61.25 77.1 61.25 83.4 61.1 90.75 61.25 95.8 63
L 96.45 63.15
Q 97.35 63.25 98.1 62.75 98.85 62.25 99.15 61.4 99.55 60.35 99.05 59.35 98.55 58.4 97.5 58.05 92.65 56.35 87.05 56 92.75 53.6 97.9 52.4 99 52.15 99.55 51.2 100.15 50.3 99.9 49.25 Z"/>
</g>

<g id="Layer0_2_MEMBER_1_FILL">
<path fill="#2F2F2F" stroke="none" d="
M 30.1 47.6
Q 29.15 48.15 28.9 49.25 28.7 50.3 29.25 51.2 29.8 52.15 30.85 52.4 31.2 52.4 34.2 53.3 38.15 54.5 41.7 56 36.1 56.35 31.25 58.05 30.2 58.4 29.75 59.35 29.25 60.35 29.6 61.4 29.9 62.25 30.7 62.75 31.45 63.25 32.35 63.15
L 33 63
Q 38.05 61.25 45.4 61.1 49.05 61 51.75 61.25 53.75 61.4 54.5 59.55 54.85 58.75 54.6 57.9 54.3 57.05 53.6 56.5 48.2 52.65 39.85 49.6 34.55 47.7 32.05 47.25 31 47 30.1 47.6 Z"/>
</g>

<g id="Layer0_3_FILL">
<path fill="#2F2F2F" stroke="none" d="
M 90.75 92.2
Q 91.65 93.05 92.9 93.05 94.15 93.05 95 92.2 95.85 91.3 95.85 90.05 95.85 88.8 95 87.95 88.2 81.15 77.8 83.45 68.4 85.55 60.2 93.7 59.35 94.55 59.35 95.8 59.35 97.05 60.2 97.9 61.05 98.8 62.3 98.8 63.55 98.8 64.45 97.9 70.75 91.6 78 89.65 86 87.45 90.75 92.2 Z"/>
</g>

<g id="Layer0_4_MEMBER_0_MEMBER_0_FILL">
<path fill="#BDBDBD" stroke="none" d="
M 37.95 34.65
Q 36.1197265625 32.9384765625 31.6 34.85 23.389453125 38.329296875 21 39 19.9365234375 39.291015625 8.05 41.6 -0.109765625 43.166796875 0.25 45.15 0.4599609375 46.6486328125 1.8 48.2 3.402734375 49.9990234375 3.65 50.45 4.2486328125 51.68984375 4.25 53.65 4.2478515625 56.184375 4.5 56.9 5.0498046875 58.4513671875 6.4 59.95 7.9123046875 61.6837890625 8 61.65 7.9955078125 61.799609375 8.05 61.9 8.8130859375 63.0671875 9.1 66 9.4267578125 69.0203125 10.7 70.25 11.830078125 71.612890625 18.5 67.3 24.7416015625 63.274609375 28.05 59.5 33.269921875 53.4689453125 36.75 45.9 40.798828125 37.0630859375 37.95 34.65 Z"/>
</g>

<g id="Layer0_4_MEMBER_0_MEMBER_1_FILL">
<path fill="#EEEEEE" stroke="none" d="
M 21.3 40.45
Q 19.9455078125 40.8203125 8.35 43.1 1.928515625 44.3115234375 1.75 44.95 1.93984375 46.0666015625 2.95 47.25 4.746875 49.2529296875 5 49.8 5.7533203125 51.2693359375 5.75 53.65 5.75234375 55.7958984375 5.95 56.4
L 5.95 56.4
Q 6.3998046875 57.69765625 7.55 59 8.720703125 60.3392578125 9.15 60.95 9.2765625 61.002734375 9.35 61.1 10.275390625 62.4138671875 10.6 65.85 10.8345703125 68.125390625 11.65 69.1 11.718359375 69.147265625 11.75 69.15 12.3125 69.5076171875 17.7 66.05 23.7166015625 62.15078125 26.95 58.55 32.009765625 52.66171875 35.4 45.3 38.83125 37.8005859375 37 35.8
L 36.95 35.75
Q 35.5826171875 34.775 32.2 36.2 23.870703125 39.741015625 21.45 40.45 21.3755859375 40.4724609375 21.3 40.45 Z"/>
</g>

<g id="Layer0_4_MEMBER_1_FILL">
<path fill="#BDBDBD" stroke="none" d="
M 28 42.85
Q 27.7 42.7 26.95 43.1 24.75 44.5 18.9 47.35 14.15 49.65 10.95 50.45 10.45 50.55 10.3 50.95 10.2 51.35 11.05 51.3 13.1 51.2 15.25 50.55 16.95 50.05 19.2 49 21.2 48.1 23.45 46.7 25.95 45.15 27.7 43.55 28.3 43 28 42.85 Z"/>
</g>

<g id="Layer0_4_MEMBER_2_FILL">
<path fill="#BDBDBD" stroke="none" d="
M 28.25 49
Q 27.95 48.95 27.4 49.45 25.55 51.35 21.15 55.05 17.45 58.2 14.8 59.65 14.35 59.85 14.3 60.2 14.3 60.6 15.1 60.4 16.9 59.9 18.65 58.8 19.95 57.95 21.85 56.5 23.45 55.2 25.05 53.45 26.95 51.45 28.15 49.7 28.55 49.05 28.25 49 Z"/>
</g>
</defs>

<g id="Layer_1">
<g transform="matrix( 0.5625, 0, 0, 0.5625, 0,0) ">
<use xlink:href="#Layer0_0_FILL"/>
</g>

<g transform="matrix( 0.5624542236328125, 0, 0, 0.5624542236328125, 0,0) ">
<use xlink:href="#Layer0_1_MEMBER_0_FILL"/>
</g>

<g transform="matrix( 0.5624542236328125, 0, 0, 0.5624542236328125, 0,0) ">
<use xlink:href="#Layer0_1_MEMBER_1_FILL"/>
</g>

<g transform="matrix( 0.5624542236328125, 0, 0, 0.5624542236328125, 0,0) ">
<use xlink:href="#Layer0_1_MEMBER_2_FILL"/>
</g>

<g transform="matrix( 0.5624542236328125, 0, 0, 0.5624542236328125, 0,0) ">
<use xlink:href="#Layer0_1_MEMBER_3_FILL"/>
</g>

<g transform="matrix( 0.5624542236328125, 0, 0, 0.5624542236328125, 0,0) ">
<use xlink:href="#Layer0_1_MEMBER_4_FILL"/>
</g>

<g transform="matrix( 0.5624542236328125, 0, 0, 0.5624542236328125, 0,0) ">
<use xlink:href="#Layer0_1_MEMBER_5_FILL"/>
</g>

<g transform="matrix( 0.5624542236328125, 0, 0, 0.5624542236328125, 0,0) ">
<use xlink:href="#Layer0_1_MEMBER_6_FILL"/>
</g>

<g transform="matrix( 0.5624542236328125, 0, 0, 0.5624542236328125, 0,0) ">
<use xlink:href="#Layer0_1_MEMBER_7_FILL"/>
</g>

<g transform="matrix( 0.5624542236328125, 0, 0, 0.5624542236328125, 0,0) ">
<use xlink:href="#Layer0_1_MEMBER_8_FILL"/>
</g>

<g transform="matrix( 0.5624542236328125, 0, 0, 0.5624542236328125, 0,0) ">
<use xlink:href="#Layer0_1_MEMBER_9_FILL"/>
</g>

<g transform="matrix( 0.5624542236328125, 0, 0, 0.5624542236328125, 0,0) ">
<use xlink:href="#Layer0_1_MEMBER_10_FILL"/>
</g>

<g transform="matrix( 0.5624542236328125, 0, 0, 0.5624542236328125, 0,0) ">
<use xlink:href="#Layer0_1_MEMBER_11_FILL"/>
</g>

<g transform="matrix( 0.5624542236328125, 0, 0, 0.5624542236328125, 0,0) ">
<use xlink:href="#Layer0_1_MEMBER_12_FILL"/>
</g>

<g transform="matrix( 0.5624542236328125, 0, 0, 0.5624542236328125, 0,0) ">
<use xlink:href="#Layer0_1_MEMBER_13_FILL"/>
</g>

<g transform="matrix( 0.5624542236328125, 0, 0, 0.5624542236328125, 0,0) ">
<use xlink:href="#Layer0_1_MEMBER_14_FILL"/>
</g>

<g transform="matrix( 0.5624542236328125, 0, 0, 0.5624542236328125, 0,0) ">
<use xlink:href="#Layer0_1_MEMBER_15_FILL"/>
</g>

<g transform="matrix( 0.5624542236328125, 0, 0, 0.5624542236328125, 0,0) ">
<use xlink:href="#Layer0_1_MEMBER_16_FILL"/>
</g>

<g transform="matrix( 0.5624542236328125, 0, 0, 0.5624542236328125, 0,0) ">
<use xlink:href="#Layer0_1_MEMBER_17_FILL"/>
</g>

<g transform="matrix( 0.5624542236328125, 0, 0, 0.5624542236328125, 0,0) ">
<use xlink:href="#Layer0_1_MEMBER_18_FILL"/>
</g>

<g transform="matrix( 0.5624542236328125, 0, 0, 0.5624542236328125, 0,0) ">
<use xlink:href="#Layer0_1_MEMBER_19_FILL"/>
</g>

<g transform="matrix( 0.5624542236328125, 0, 0, 0.5624542236328125, 0,0) ">
<use xlink:href="#Layer0_1_MEMBER_20_FILL"/>
</g>

<g transform="matrix( 0.5624542236328125, 0, 0, 0.5624542236328125, 0,0) ">
<use xlink:href="#Layer0_1_MEMBER_21_FILL"/>
</g>

<g transform="matrix( 0.5625, 0, 0, 0.5625, 0,0) ">
<use xlink:href="#Layer0_2_MEMBER_0_FILL"/>
</g>

<g transform="matrix( 0.5625, 0, 0, 0.5625, 0,0) ">
<use xlink:href="#Layer0_2_MEMBER_1_FILL"/>
</g>

<g transform="matrix( 0.5625, 0, 0, 0.5625, 0,0) ">
<use xlink:href="#Layer0_3_FILL"/>
</g>

<g transform="matrix( 1, 0, 0, 1, 0,0) ">
<use xlink:href="#Layer0_4_MEMBER_0_MEMBER_0_FILL"/>
</g>

<g transform="matrix( 1, 0, 0, 1, 0,0) ">
<use xlink:href="#Layer0_4_MEMBER_0_MEMBER_1_FILL"/>
</g>

<g transform="matrix( 1, 0, 0, 1, 0,0) ">
<use xlink:href="#Layer0_4_MEMBER_1_FILL"/>
</g>

<g transform="matrix( 1, 0, 0, 1, 0,0) ">
<use xlink:href="#Layer0_4_MEMBER_2_FILL"/>
</g>
</g>
</svg>
